X:1
T: Rock Valley (J-78)
M:6/8
K:C
"G7"(3G,A,B,  \
| "C"C2E GFE | "F"D2E"Dm"F2A | "G"GAG GBd | "C"cBc "G7"AGE \
| "C"C2E GFE | "F"D2E"Dm"F2A | "G"GAG GBd | "C"c>dc c2 :|
|: g \
| "C"gag gag | "C"e2c "F"cBA | "C"G2c B2c | "D(m)"ed^c d2g \
| "C"gag gag | "C"e2c "F"cBA | "C"G2c "G7"Bcd | "C"c>dc c2 :|
